X: 26
T:Aandowin At Da Bowe
M:4/4
L:1/8
Q:100
K:G
A-|"G"BGAG "C"E2 D2|"G"B-GA-G "C"BGAd|"G"BGAG "C"E2 D-E|"G"GA"D"BA "G"G2
G:|!
g-|"G"egdB "C"AG E2|"G"e-gdg "C"egdg|"G"egdB "C"AG Ee|"G"g2 gg- "D"af- "
G"g2|!
"G"e-gdg "C"egdg|"G"egdB "C"AG ED|"G"GABG "C"E2 D-E|"G"GA"D"BA "G"G3||
